X:42
%%etbk:tnset id:14,pos:3,rep:3x,ant:
%%etbk:wsite http://www.thesession.org/tunes/display/477
%%etbk:pldat 2016-07-12T16:15,2016-03-17T18:47,2015-10-12T18:21,2014-12-28T15:00,2014-05-05T19:26,2014-03-09T15:06,2014-02-14T16:24,2013-11-26T15:50,2013-11-21T18:51,2013-11-16T14:32,2013-11-06T16:41,2013-10-08T16:48,2013-10-05T16:26,2013-10-04T17:59
T: Abbey, The
Z: Piano Box Version by Martin Fleischmann
H: Created 2013-02-19 /  Last Modified 2013-11-26
M: 4/4
L: 1/8
R: reel
K: Ador
|: "am"!3!A3!4!B !3!AG!1!EG | !3!AAGA "em"!4!B!5!dd!4!B | "am"!3!A3B AG!1!E!2!F |1 "G"!1!G3A !3!B!5!e!4!d!3!B :|2 "G"!1!G3A !3!B!4!d!1!d2 :|
| "am"!2!e!3!ggg !4!a2!5!ba | "em"!3!gabg !4!ag!2!e!1!d | "am"!2!e!3!ggg !4!a2!3!g!4!a | "em"!5!bg!4!af !4!ged!4!g |
"am"!2!e!3!g!3!g!2!g !4!ag!5!bg | !4!agbg !4!ag!2!e!1!d | !2!e!3!g!2!g!3!g !4!a2!3!g!4!a | "em"!5!bg!4!af !4!g!2!e!1!d!2!B |


